X:1
T:Title
%%score ( 1 2 ) { 3 | 4 }
L:1/8
Q:1/4=100
M:4/4
K:C
V:1 treble nm="Grand Piano, Soprano"
V:2 treble 
V:3 bass nm="Choir Pad, He Slumbers Not, Shattuck"
V:4 bass 
V:1
 [CE]2 [CE]2- [CE][B,D] [A,C]2 | [B,D]2 [CE]6 | [EG]2 [DG]2- [DG][DF] [CE]2 | [B,D]2 C6 | %4
w: By~Daniel~Brink~Towner * * * *||||
 [CE]2 [EA]2- [EA][EB][Ac][Ac] | [AB]>A [^GB]6 | [^GB]2 [=Gd]2- [Gd][^FA] [GB]2 | %7
w: |||
 [^FA]2 G4- G[=FG] | [FB]>[Ec] [Fd]4- [Fd][Af] | [Ge]>[Fd] [Ec]4- [Ec][Ec] | %10
w: |||
 [GB]>[FA] [EG]4- [EG][Ec] | [Fd]>[FB] [Ec]4- [Ec][ce] | [ce]>[Bd] [Ac]4- [Ac][Ec] | %13
w: |||
 [Ec]>[DB] [CA]4- [CA][^Fd] | [^Fd]>[Fe] [Fd]4- [Fd][GB] | z2 G6 | [CE]>[EG] [Ge]4- [Ge][Fd] | %17
w: ||||
 [Ec]>[EG] [FA]4- [FA][Af] | [Ge]>[Ec] [Ge]4- [Ge][Fd] | z2 c6- | c6 z2 |] %21
w: ||||
V:2
 x8 | x8 | x8 | x8 | x8 | x8 | x8 | x8 | x8 | x8 | x8 | x8 | x8 | x8 | x8 | %15
 [Ac]>[^FA] z D D>E =F[EG] | x8 | x8 | x8 | [FA]>[FB] EE F>F E2- | E6 z2 |] %21
V:3
 A,2 A,2- A,A, E,2 | A,2 A,6 | C2 B,2- B,B, C2 | G,F, E,6 | G,2[K:treble] C2- CDEE | %5
 E>C[K:bass] B,6 | B,2 B,2- B,D D2 | C2 B,6 | z2 z B, B,>B, .B,2 | z2 z G, G,>G, .G,2 | %10
 z2 z[K:treble] C C>C CG, | G,>G, G,6 | z2 z E E>E .E2 | z2 z E E>E .E2 | z2 z A, A,>A, .A,2 | %15
 z2 z B, B,>C .D2 | z2 z C C>C .C2 | z2 z C C>C .C2 | z2 z C C>C CB, | %19
 D>[K:bass]G, G,G, A,>A, G,2- | G,6 z2 |] %21
V:4
 A,,2 A,,2- A,,A,, A,,2 | A,,2 A,,6 | G,,2 G,,2- G,,G,, G,,2 | G,,2 C,6 | C,2 A,,2- A,,A,,A,,A,, | %5
 A,,>A,, E,6 | E,2 D,2- D,D, D,2 | D,2 G,6 | z2 z G, G,>G, .G,2 | z2 z C, C,>C, .C,2 | %10
 z2 z G, G,>G, .G,2 | z2 C,6 | z2 z A, A,>A, .A,2 | z2 z A, A,>A, .A,2 | z2 z D, D,>D, .D,2 | %15
 z2 z G, G,>G, .G,2 | z2 z C, C,>C, .C,2 | z2 z F, F,>F, .F,2 | z2 z G, G,>G, G,G, | G,2 C,6- | %20
 C,6 z2 |] %21

